gsa/public/img/os_gentoo.svg

<?xml version="1.0" encoding="UTF-8" standalone="no"?>
<!-- Created with Inkscape (http://www.inkscape.org/) -->

<svg
   xmlns:dc="http://purl.org/dc/elements/1.1/"
   xmlns:cc="http://creativecommons.org/ns#"
   xmlns:rdf="http://www.w3.org/1999/02/22-rdf-syntax-ns#"
   xmlns:svg="http://www.w3.org/2000/svg"
   xmlns="http://www.w3.org/2000/svg"
   xmlns:xlink="http://www.w3.org/1999/xlink"
   xmlns:sodipodi="http://sodipodi.sourceforge.net/DTD/sodipodi-0.dtd"
   xmlns:inkscape="http://www.inkscape.org/namespaces/inkscape"
   width="52.509098"
   height="52.52018"
   viewBox="0 0 52.509098 52.52018"
   id="svg5160"
   sodipodi:version="0.32"
   inkscape:version="0.48.5 r10040"
   sodipodi:docname="os_gentoo.svg"
   version="1.0"
   inkscape:export-xdpi="27.42"
   inkscape:export-ydpi="27.42">
  <defs
     id="defs5162">
    <linearGradient
       inkscape:collect="always"
       id="linearGradient13960">
      <stop
         style="stop-color:white;stop-opacity:1;"
         offset="0"
         id="stop13962" />
      <stop
         style="stop-color:white;stop-opacity:0;"
         offset="1"
         id="stop13964" />
    </linearGradient>
    <linearGradient
       id="linearGradient3898">
      <stop
         style="stop-color:#8f82f9;stop-opacity:1;"
         offset="0"
         id="stop3900" />
      <stop
         style="stop-color:white;stop-opacity:1;"
         offset="1"
         id="stop3902" />
    </linearGradient>
    <linearGradient
       inkscape:collect="always"
       xlink:href="#linearGradient3898"
       id="linearGradient13956"
       x1="46.591862"
       y1="89.585007"
       x2="43.591812"
       y2="-74.733185"
       gradientUnits="userSpaceOnUse" />
    <linearGradient
       inkscape:collect="always"
       xlink:href="#linearGradient13960"
       id="linearGradient13966"
       x1="26.48"
       y1="1.3939171"
       x2="26.48"
       y2="52.84341"
       gradientUnits="userSpaceOnUse" />
  </defs>
  <sodipodi:namedview
     id="base"
     pagecolor="#ffffff"
     bordercolor="#666666"
     borderopacity="1.0"
     inkscape:pageopacity="0.0"
     inkscape:pageshadow="2"
     inkscape:zoom="3.8890873"
     inkscape:cx="78.674433"
     inkscape:cy="28.413687"
     inkscape:current-layer="layer1"
     showgrid="false"
     inkscape:document-units="px"
     inkscape:grid-bbox="true"
     inkscape:window-width="1680"
     inkscape:window-height="1030"
     inkscape:window-x="-3"
     inkscape:window-y="-3"
     showguides="true"
     inkscape:guide-bbox="true"
     inkscape:window-maximized="1">
    <sodipodi:guide
       orientation="vertical"
       position="393.92276"
       id="guide5230" />
    <sodipodi:guide
       orientation="vertical"
       position="438.14907"
       id="guide5236" />
  </sodipodi:namedview>
  <metadata
     id="metadata5165">
    <rdf:RDF>
      <cc:Work
         rdf:about="">
        <dc:format>image/svg+xml</dc:format>
        <dc:type
           rdf:resource="http://purl.org/dc/dcmitype/StillImage" />
        <dc:title />
      </cc:Work>
    </rdf:RDF>
  </metadata>
  <g
     id="layer1"
     inkscape:label="Layer 1"
     inkscape:groupmode="layer"
     transform="translate(-3.819132,-6.155729)">
    <g
       inkscape:label="shadow"
       style="display:inline"
       id="layer4"
       transform="translate(-392.7904,328.2799)" />
    <g
       inkscape:label="shadow"
       id="g3039"
       transform="translate(-840.833,182.2722)" />
    <g
       inkscape:label="color"
       id="g3041"
       transform="translate(-840.833,182.2722)">
      <path
         style="opacity:1;fill:#71c000;fill-opacity:1;stroke:#71c000;stroke-width:3.37896037;stroke-linejoin:bevel;stroke-miterlimit:4;stroke-dasharray:none;stroke-opacity:1"
         d=""
         id="path3043" />
      <path
         style="opacity:1;fill:#71c000;fill-opacity:1;stroke:#71c000;stroke-width:3.37896037;stroke-linejoin:bevel;stroke-miterlimit:4;stroke-dasharray:none;stroke-opacity:1"
         d=""
         id="path3045" />
      <path
         style="opacity:1;fill:#71c000;fill-opacity:1;stroke:#71c000;stroke-width:3.37896037;stroke-linejoin:bevel;stroke-miterlimit:4;stroke-dasharray:none;stroke-opacity:1"
         d=""
         id="path3047" />
    </g>
    <g
       inkscape:label="highlight"
       id="g3049"
       transform="translate(-840.833,182.2722)" />
    <g
       inkscape:label="text"
       id="g3089"
       transform="translate(-840.833,182.2722)" />
    <g
       id="g4774"
       inkscape:label="shadow"
       transform="translate(-1426.607,-26.2895)" />
    <g
       id="layer2"
       inkscape:label="color"
       transform="translate(-1426.607,-26.2895)">
      <path
         style="opacity:1;fill:#71c000;fill-opacity:1;stroke:#71c000;stroke-width:3.37896037;stroke-linejoin:bevel;stroke-miterlimit:4;stroke-dasharray:none;stroke-opacity:1"
         d=""
         id="path3422" />
      <path
         style="opacity:1;fill:#71c000;fill-opacity:1;stroke:#71c000;stroke-width:3.37896037;stroke-linejoin:bevel;stroke-miterlimit:4;stroke-dasharray:none;stroke-opacity:1"
         d=""
         id="path3426" />
      <path
         style="opacity:1;fill:#71c000;fill-opacity:1;stroke:#71c000;stroke-width:3.37896037;stroke-linejoin:bevel;stroke-miterlimit:4;stroke-dasharray:none;stroke-opacity:1"
         d=""
         id="path3428" />
    </g>
    <g
       id="g5777"
       inkscape:label="highlight"
       transform="translate(-1426.607,-26.2895)" />
    <g
       id="layer5"
       inkscape:label="text"
       transform="translate(-1426.607,-26.2895)" />
    <rect
       style="opacity:1;color:black;fill:url(#linearGradient13956);fill-opacity:1;fill-rule:evenodd;stroke:#2b2b2b;stroke-width:0.997;stroke-linecap:butt;stroke-linejoin:miter;marker:none;marker-start:none;marker-mid:none;marker-end:none;stroke-miterlimit:4;stroke-dasharray:none;stroke-dashoffset:0;stroke-opacity:1;visibility:visible;display:inline;overflow:visible"
       id="rect13948"
       width="50.730724"
       height="50.548958"
       x="4.9082928"
       y="7.219615"
       ry="7.0913997" />
    <g
       id="g6007"
       transform="matrix(-3.973892e-3,0.629601,-0.629601,-3.973892e-3,295.5792,-273.6194)"
       inkscape:export-xdpi="27.42"
       inkscape:export-ydpi="27.42"
       style="fill:white">
      <g
         transform="translate(415.3267,354.416)"
         id="g6011"
         style="fill:white" />
    </g>
    <g
       id="g3192"
       inkscape:label="openvaslogo"
       style="display:inline"
       transform="translate(-996.7028,556.527)" />
    <path
       style="opacity:1;color:black;fill:none;fill-opacity:1;fill-rule:evenodd;stroke:url(#linearGradient13966);stroke-width:1;stroke-linecap:butt;stroke-linejoin:miter;marker:none;marker-start:none;marker-mid:none;marker-end:none;stroke-miterlimit:4;stroke-dasharray:none;stroke-dashoffset:0;stroke-opacity:1;visibility:visible;display:inline;overflow:visible"
       d="M 2.1818182,45.429271 L 2,7.792907 C 2,7.792907 3.0909091,2.1565434 7.4545455,1.9747252 C 11.818182,1.792907 44.909091,1.9747252 44.909091,1.9747252 C 44.909091,1.9747252 50.727273,1.9747252 50.909091,9.2474525 C 51.090909,16.52018 50.727273,45.974725 50.727273,45.974725"
       id="path13958"
       transform="translate(3.819132,6.155729)" />
    <g
       id="layer5-6"
       inkscape:label="top"
       style="fill:#ffffff;display:inline"
       transform="matrix(0.07648859,0,0,0.07648859,8.2596894,9.9988632)">
      <path
         style="fill:#ffffff;fill-opacity:1;fill-rule:evenodd;stroke:none"
         d="M 253.35285,41.570018 C 192.71898,47.959829 181.10644,55.76371 126.17687,97.322591 107.767,111.25125 73.883463,145.14202 65.201668,185.34831 c -3.306505,15.31275 0.601944,28.53259 11.630184,37.80412 35.312998,29.68796 94.416058,53.77395 142.904478,77.05704 14.20232,6.81964 4.79874,19.18504 -18.10392,39.01252 -57.79173,50.03186 -135.926941,110.93446 -141.3817,157.34203 -2.570415,21.86837 4.916125,51.5832 31.459397,66.7898 31.006723,17.76369 95.372133,6.16955 138.351373,-9.835 62.80599,-23.38762 145.30781,-75.00368 210.80628,-125.74104 68.11013,-52.76042 131.43764,-119.77326 134.57017,-130.70294 3.84668,-13.42147 3.46325,-25.81795 -3.96035,-40.07068 C 559.81983,234.62227 544.23417,217.99109 527.49924,199.37578 482.59667,152.03725 435.087,110.44129 378.2447,78.565883 337.19672,55.547464 301.08129,36.540217 253.35285,41.570018 z m 89.06787,106.129442 c 43.80514,21.17863 88.78971,76.80693 -0.39035,108.8248 -24.25015,8.70642 -101.15792,-21.38222 -98.80358,-62.4438 3.43316,-60.65568 45.70723,-72.24041 99.19393,-46.381 z"
         id="path2977"
         sodipodi:nodetypes="cssssssssssscsscsss" />
    </g>
  </g>
</svg>

<?xml version="1.0" encoding="UTF-8"?>
<svg width="52.509" height="52.52" version="1.0" viewBox="0 0 52.509 52.52" xmlns="http://www.w3.org/2000/svg" xmlns:xlink="http://www.w3.org/1999/xlink">
 <defs>
  <linearGradient id="linearGradient13956" x1="46.592" x2="43.592" y1="89.585" y2="-74.733" gradientUnits="userSpaceOnUse">
   <stop stop-color="#8f82f9" offset="0"/>
   <stop stop-color="#fff" offset="1"/>
  </linearGradient>
  <linearGradient id="linearGradient13966" x1="26.48" x2="26.48" y1="1.3939" y2="52.843" gradientUnits="userSpaceOnUse">
   <stop stop-color="#fff" offset="0"/>
   <stop stop-color="#fff" stop-opacity="0" offset="1"/>
  </linearGradient>
 </defs>
 <g transform="translate(-3.8191 -6.1557)">
  <g transform="translate(-840.83 182.27)" fill="#71c000" stroke="#71c000" stroke-linejoin="bevel" stroke-width="3.379"></g>
  <g transform="translate(-1426.6 -26.29)" fill="#71c000" stroke="#71c000" stroke-linejoin="bevel" stroke-width="3.379"></g>
  <rect x="4.9083" y="7.2196" width="50.731" height="50.549" ry="7.0914" color="black" fill="url(#linearGradient13956)" fill-rule="evenodd" stroke="#2b2b2b" stroke-width=".997"/>
  <g transform="matrix(-.0039739 .6296 -.6296 -.0039739 295.58 -273.62)" fill="#fff"></g>
  <path transform="translate(3.8191 6.1557)" d="m2.1818 45.429-0.18182-37.636s1.0909-5.6364 5.4545-5.8182c4.3636-0.18182 37.455 0 37.455 0s5.8182 0 6 7.2727c0.18182 7.2727-0.18182 36.727-0.18182 36.727" color="black" fill="none" stroke="url(#linearGradient13966)"/>
  <g transform="matrix(.076489 0 0 .076489 8.2597 9.9989)" fill="#fff">
   <path d="m253.35 41.57c-60.634 6.3898-72.246 14.194-127.18 55.753-18.41 13.929-52.293 47.819-60.975 88.026-3.3065 15.313 0.60194 28.533 11.63 37.804 35.313 29.688 94.416 53.774 142.9 77.057 14.202 6.8196 4.7987 19.185-18.104 39.013-57.792 50.032-135.93 110.93-141.38 157.34-2.5704 21.868 4.9161 51.583 31.459 66.79 31.007 17.764 95.372 6.1696 138.35-9.835 62.806-23.388 145.31-75.004 210.81-125.74 68.11-52.76 131.44-119.77 134.57-130.7 3.8467-13.421 3.4632-25.818-3.9604-40.071-11.658-22.382-27.243-39.013-43.978-57.628-44.903-47.339-92.412-88.934-149.25-120.81-41.048-23.018-77.163-42.026-124.89-36.996zm89.068 106.13c43.805 21.179 88.79 76.807-0.39035 108.82-24.25 8.7064-101.16-21.382-98.804-62.444 3.4332-60.656 45.707-72.24 99.194-46.381z" fill="#fff" fill-rule="evenodd"/>
  </g>
 </g>
</svg>
